X: 9
T: Lady Anne Montgomery
Z: UPipes & harp
S: https://thesession.org/tunes/59#setting49883
R: reel
M: 4/4
L: 1/8
K: Dmaj
|:FADA FADA|FAdA BAdA|FAAF E2 EF|dBAB d3 A|
FADA FADA|FAdA B2Bc|dBAF E2 EF|1 dBAB d3 A:|2 dBAB d3 e||
|:f3a fede|fedB ABde|f3a fede|faaf e2de|
f3a fede|fedB ABde|f2 ed BdAd|1 egfe d3 e:|2 egfe d4||

